X: 38737
T: Strike The Gay Harp
R: jig
M: 6/8
K: Dmajor
d2B cBA|dAF FED|d2B cAA|dAF EFA|
def Bcd|ABA F2 E|DED DEF|AFE EFA:|
dcd fdf|aba afe|def afa|bge edB|
def afa|bgb a2g|fed dfe|dAF EFA:|
def def|dAF DFA|def def|dAF F2A|
def Bcd|ABA F2 E|DED DEF|AFE EFA:|

